X:1
T:Alexander's Hornpipe
R:Hornpipe
M:C
L:1/8
%%printtempo 0
Q:180
K:D
f>e|\
"D"d>AF>A D>FA>d|"Bm"f>dc>d "A"A2 ue>f| "G"~g3e "D"f>dc>d|"Em"(3efe (3dcB "A"A2uf>e|
"D"d>AF>A D>FA>d|"Bm"f>dc>d "A"A2 ue>f| "G"~g3e "D"f>dc>d|"A"(3efe d>c "D"d2:|
|:A>G|\
"D"F>Ad>A F>Ad>A|"G"G>Bd>B G>Bd2|"A"uA>ce>c A>ce>c| "D"d>fa>f "A"g>e (3fed|
"D"F>Ad>A F>Ad>A|"G"G>Bd>B G>Bd2|"A"uA>ce>f g>ec>d|"G"e>dd>c "D"d2:|
